X: 1220
T: Karcığar Sazsemâîsi
C: Ahmet Mükerrem Akıncı
O: Turkey
F: http://compmusic.upf.edu/node/140
N: karcigar--sazsemaisi--aksaksemai----ahmet_mukerrem_akinci
N: makam= karcigar
N: form= sazsemaisi
N: usul= aksaksemai = 10/8
M: 10/8
L: 1/16
K: C _2/4B _3/4e ^3/4f 
Q: 1/4=120
%%MIDI tuningsystem comma53
A3c Bcd4f3/2e/ dcd3/2c/ BcA2  | A3G dcBc d2e3ded cBc2  | 
w:  1. HANE  |   | 
g4 g^fg3a_b/a/b/c'/ baa3/2g/ fed2  | \
w:   | 
de2d faga gffe eddc BAA2  | 
w:   | 
A3c Bcd4f3/2e/ dcd3/2c/ BcA2  | A3G dcBc d2e3ded cBc2  | 
w:  1. HANE  |   | 
g4 g^fg3a_b/a/b/c'/ baa3/2g/ fed2  | \
w:   | 
de2d faga gffe edde fga2  | 
w:   | 
g2a2 a2_b3/2a/ gag3/2^f/ efd4z2  | \
w:  TESLİM  | 
edcB cdef g2d4e3/2d/ cBc2  | 
w:   | 
G3c _1/4Bcd4e3/2d/ ecde fg_b3/2a/  | \
w:   | 
gfed cBc3BB/A/B/c/ BAAB cdef  | 
w:   | 
g2a2 a2_b3/2a/ gag3/2^f/ efd4z2  | \
w:  TESLİM  | 
edcB cdef g2d4e3/2d/ cBc2  | 
w:   | 
G3c _1/4Bcd4e3/2d/ ecde fg_b3/2a/  | \
w:   | 
gfed cBc3BB/A/B/c/ BAA4z2  | 
w:   | 
A4 d2=e4eg ^fge4c2  | dede c2d3cg3/2=f/ =ede3/2d/ c_1/4Bc2  | 
w:  2. HANE  |   | 
g4 g2g3/2^f/ ga_b3/2a/ gfg3/2f/ _7/8edc2  | \
w:   | 
de2d faga gffe eded cBA2  | 
w:   | 
A4 d2=e4eg ^fge4c2  | dede c2d3cg3/2=f/ =ede3/2d/ c_1/4Bc2  | 
w:  2. HANE  |   | 
g4 g2g3/2^f/ ga_b3/2a/ gfg3/2f/ _7/8edc2  | \
w:   | 
de2d faga gffe edde fga2  | 
w:   | 
g2a2 a2_b3/2a/ gag3/2^f/ efd4z2  | \
w:  TESLİM  | 
edcB cdef g2d4e3/2d/ cBc2  | 
w:   | 
G3c _1/4Bcd4e3/2d/ ecde fg_b3/2a/  | \
w:   | 
gfed cBc3BB/A/B/c/ BAAB cdef  | 
w:   | 
g2a2 a2_b3/2a/ gag3/2^f/ efd4z2  | \
w:  TESLİM  | 
edcB cdef g2d4e3/2d/ cBc2  | 
w:   | 
G3c _1/4Bcd4e3/2d/ ecde fg_b3/2a/  | \
w:   | 
gfed cBc3BB/A/B/c/ BAA4z2  | 
w:   | 
g4 g2g3/2a/ g^f=e3/2d/ efg2 fedc  | \
w:  3. HANE  | 
_1/4B3/2A/Bc d=e=fe dcBA/B/ cAG4g2  | 
w:   | 
g4 a2_b3aa3/2g/ g^fgf _7/8edc2  | \
w:   | 
de2d faga gffe edde fag2  | 
w:   | 
g4 g2g3/2a/ g^f=e3/2d/ efg2 fedc  | \
w:  3. HANE  | 
_1/4B3/2A/Bc d=e=fe dcBA/B/ cAG4g2  | 
w:   | 
g4 a2_b3aa3/2g/ g^fgf _7/8edc2  | \
w:   | 
de2d faga gffe edde fga2  | 
w:   | 
g2a2 a2_b3/2a/ gag3/2^f/ efd4z2  | \
w:  TESLİM  | 
edcB cdef g2d4e3/2d/ cBc2  | 
w:   | 
G3c _1/4Bcd4e3/2d/ ecde fg_b3/2a/  | \
w:   | 
gfed cBc3BB/A/B/c/ BAAB cdef  | 
w:   | 
g2a2 a2_b3/2a/ gag3/2^f/ efd4z2  | \
w:  TESLİM  | 
edcB cdef g2d4e3/2d/ cBc2  | 
w:   | 
G3c _1/4Bcd4e3/2d/ ecde fg_b3/2a/  | \
w:   | 
gfed cBc3BB/A/B/c/ BAA4z2  | 
w:   | 
z12  | e3dc2B2c2d2  | e2f2g2f2e2d2  | e3dc2B2c2d2  | \
w:  |  4. HANE  |   |   | 
c6g4e2  | 
w:   | 
e3dc2B2c2d2  | e2f2g2f2e2d2  | e3dc2B2c2d2  | \
w:   |   |   | 
c6g4z2  | 
w:   | 
_b3ag2g2=f2_1/4e2  | _1/4e4^d2e2=f2g2  | \
w:   |   | 
_b3ag2g2=f2_1/4e2  | _1/4e3^dc2c4z2  | 
w:   |   | 
_b3ag2g2=f2_1/4e2  | _1/4e4^d2e2=f2g2  | \
w:   |   | 
_b3ag2g2=f2_1/4e2  | _1/4e3^dc2c4z2  | 
w:   |   | 
c3Bc2d4d2  | e3de2f4f2  | g3fe2e2d2c2  | \
w:   |   |   | 
g4g2g4z2  | c3Bc2d4d2  | 
w:   |   | 
e3de2f4f2  | g3fe2e2d2c2  | d4d2d4z2  | \
w:   |   |   | 
g4g2g4f2  | g4a2_b6  | 
w:   |   | 
_b2a2g2^f2g2a2  | a2g2f2e2^f2g2  | g2f2e2d2e2^f2  | \
w:   |   |   | 
f2e2d2e3dc2  | 
w:   | 
g6g4z2  | g4g2g4f2  | g4a2_b6  | _b2a2g2^f2g2a2  | \
w:   |   |   |   | 
a2g2f2e2^f2g2  | 
w:   | 
g2f2e2d2e2^f2  | f2e2d2e3dc2  | d2c2B2c4z2  | \
w:   |   |   | 
B4c2d4c2  | 
w:   | 
d4e2f2e2d2  | e4f2g2f2e2  | d4f2a4z2  | \
w:   |   |   | 
g4a2_b2a2g2  | a2g2^f2g2f2_7/8e2  | 
w:   |   | 
f2e2d2e2d2c2  | c4B2g2f2e2  | d4c2c4B2  | \
w:   |   |   | 
B4A2A4z2  | z20  | g2a2 a2_b3/2a/ gag3/2^f/ efd4z2  | 
w:   |  |  TESLİM  | 
edcB cdef g2d4e3/2d/ cBc2  | G3c _1/4Bcd4e3/2d/ ecde fg_b3/2a/  | 
w:   |   | 
gfed cBc3BB/A/B/c/ BAAB cdef  | g2a2 a2_b3/2a/ gag3/2^f/ efd4z2  | 
w:   |  TESLİM  | 
edcB cdef g2d4e3/2d/ cBc2  | G3c _1/4Bcd4e3/2d/ ecde fg_b3/2a/  | 
w:   |   | 
gfed cBc3BB/A/B/c/ BAA4z2  | |


